X: 214
T:Mirabilia testimonia tua
N: Derived from Jos1802-Mirabilia_testimonia_tua.krn
C: Josquin des Prez
%%abc-version 2.0
%%abcx-abcm2ps-target-version 5.9.1 (29 Sep 2008)
%%abc-creator hum2abc beta
%%abcx-conversion-date 2019/02/12 16:15:48
%%abc-edited-by Jesse Rodin
%%abc-edited-by Chris Gage 06-08-2012
%%abcx-initial-encoding-date 2012/06/10/
%%humdrum-veritas 589872180
%%humdrum-veritas-data 1064639721
%%linebreak <none>
%%barnumbers 0
L: 1/4
M: 2/1
Q: 1/2=120
K: F clef=treble
d6d2 | 
_e2d2c2B2 | 
c4c2c2 | 
d2c2B2A2 | 
B4B2B2 | 
c2B2A2G2 | 
d3cB2A2 | 
B2c2A4 | 
z2d4cB | 
A2G2F2f2- | 
fed3^cc=B | 
d8 | 
Z10 | 
z4z2d2- | 
d2d2f3g | 
d4z4 | 
z4z2d2 | 
c2A2d4 | 
c2B2A4 | 
G4z4 | 
z8 | 
z4z2G2 | 
BABcd2d2 | 
G4z4 | 
z8 | 
z4F4 | 
G4A4 | 
B4G2G2 | 
B3cd2_e2- | 
edd4c2 | 
d8 | 
z4d4 | 
d2c2B2A2 | 
G8 | 
z4c4 | 
c2B2A2G2 | 
F8- | 
F8 | 
z8 | 
z4f4 | 
f2f4f2- | 
f2d4d2 | 
e8 | 
Z6 | 
z2c4d2 | 
c2f4e2 | 
f8 | 
Z2 | 
f3ff2f2 | 
c8 | 
z4z2d2 | 
c2A2B2c2- | 
cBAGA2A2 | 
G8 | 
z2B2B2B2 | 
B2B2c4 | 
A8 | 
z8 | 
z4z2F2 | 
A3Bc2c2 | 
F8 | 
Z8 | 
z2d2d2d2 | 
A3Bc2d2 | 
B2AGA4 | 
G8 | 
z2c2c4 | 
d6d2 | 
B2B2B4 | 
c8 | 
Z5 | 
z2d2d2d2 | 
f8 | 
d4d2d2 | 
f6e2 | 
d2cBc4 | 
F2B4A2 | 
B8 | 
Z4 | 
B4B4 | 
A6A2 | 
B8- | 
B8- | 
B8 | 
z4z2d2 | 
B2c2d4- | 
d4G4 | 
Z4 | 
z2c2c2B2 | 
c4z2A2 | 
A6A2 | 
A6GF | 
G4z4 | 
z8 | 
G2c2B2G2 | 
B4F3G | 
[M:3/1]A12- | 
A12 | 
z12 | 
B4B4G4 | 
G12 | 
Z3 | 
B6B2B4 | 
c4c4A4 | 
d12 | 
z12 | 
d8d4 | 
d12 | 
B8z4 | 
B8G4 | 
A8B4 | 
c2B2A2G2F4 | 
G8^F4 | 
[M:2/1]G4z2B2 | 
A6A2 | 
A4F4 | 
G2B4A2 | 
B8 | 
z8 | 
z2d2d2d2 | 
A8 | 
z2d2c3d | 
e2f4ed | 
c2A2B4 | 
A2d4^c2 | 
d8 ||  
 [K:F] 
Z7 | 
z2d2d4 | 
d2d2e4 | 
c4d4 | 
B2B2c4 | 
A4d4 | 
B2AGA4 | 
G4z2G2 | 
B2B2c4 | 
B4_e4 | 
d4z2c2- | 
c2=B2c4 | 
Z4 | 
z4d4 | 
f6f2 | 
f4z2f2 | 
f4e4 | 
z2d3cBA | 
B2A4G2 | 
A4z2A2 | 
d4c4 | 
f4e2f2- | 
f2edc2f2- | 
f2e4d2- | 
dcc4=B2 | 
c8 | 
z8 | 
f2e2d2c2 | 
d4A2f2- | 
fed3^cc=B | 
d8 | 
Z5 | 
z4z2d2 | 
d4f4 | 
e4d4- | 
d2c2d2B2 | 
A2f2e2d2- | 
d2cBA4 | 
G8 | 
z4d4- | 
d4z4 | 
d4z4 | 
z4z2e2 | 
d2e2f4 | 
e4z4 | 
z4z2e2 | 
d2e2f4 | 
e2d4^c2 | 
[M:3/1]d12 | 
Z3 | 
d6d2d4 | 
d6c2B4 | 
G4B8 | 
A12 | 
[M:2/1]B4z2B2- | 
B2B2c4 | 
B8 | 
Z3 | 
(3A4B4G4 | 
(3:2:2F4A8 | 
(3:2:2G8^F4 | 
G8 | 
z2G2B3c | 
d2d2G2d2 | 
c2B2A4 | 
G2F2E4 | 
DEFGA3B | 
c2d4^c2 | 
d8 | 
Z9 | 
z2z2z2d4B2 | 
c2d4G6- | 
G6z2z2z2 | 
Z3 | 
c4A2B2c2c2 | 
B4c2F6 | 
Z4 | 
[M:2/1]e2e2f4 | 
c2c2d4 | 
A2A2B4 | 
A2d3^cc=B | 
d4z4 | 
z4z2G2- | 
G2G2A2F2 | 
G4F3G | 
A3GG2^F2 | 
G4z4 | 
A4A2A2 | 
c4A2A2 | 
A2A2F4 | 
Z3 | 
c4d2d2 | 
c4B4 | 
c4d4 | 
c4d4- | 
d2d2_e2d2 | 
c2B2c4 | 
Z2 | 
c6c2 | 
d2c2B2A2 | 
B4z4 | 
z8 | 
z4B4- | 
B2B2c2B2 | 
A2G2A4 | 
Z2 | 
z4d3d | 
c2A2B3c | 
A4z4 | 
z8 | 
z2d4cB | 
A2G2F2f2- | 
fed3^cc=B | 
d8 | 
Z2 | 
f6d2 | 
e2c3BAG | 
F2G4^F2 | 
G8 |]  



